ix/message-add_broken.svg

<svg viewBox="0 0 24 24" fill="none" xmlns="http://www.w3.org/2000/svg" height="1em" width="1em">
  <path d="M9 17.5C9 17.82 8.96 18.13 8.88 18.43C8.79 18.83 8.63001 19.22 8.42001 19.56C7.73001 20.72 6.46 21.5 5 21.5C3.97 21.5 3.04 21.11 2.34 20.47C2.04 20.21 1.77999 19.9 1.57999 19.56C1.20999 18.96 1 18.25 1 17.5C1 16.42 1.43 15.43 2.13 14.71C2.86 13.96 3.88 13.5 5 13.5C6.18 13.5 7.25 14.01 7.97 14.83C8.61 15.54 9 16.48 9 17.5Z" stroke="#292D32" stroke-width="1.5" stroke-miterlimit="10" stroke-linecap="round" stroke-linejoin="round"/>
  <path d="M6.48975 17.48H3.50977" stroke="#292D32" stroke-width="1.5" stroke-miterlimit="10" stroke-linecap="round" stroke-linejoin="round"/>
  <path d="M5 16.02V19.01" stroke="#292D32" stroke-width="1.5" stroke-miterlimit="10" stroke-linecap="round" stroke-linejoin="round"/>
  <path d="M8.5 10.5H15.5" stroke="#292D32" stroke-width="1.5" stroke-miterlimit="10" stroke-linecap="round" stroke-linejoin="round"/>
  <path d="M22 11.5399V13.4299C22 14.9299 21.5 16.1799 20.62 17.0599C19.75 17.9299 18.5 18.4299 17 18.4299V20.5599C17 21.3599 16.11 21.84 15.45 21.4L11 18.4299H8.88C8.96 18.1299 9 17.8199 9 17.4999C9 16.4799 8.61 15.54 7.97 14.83C7.25 14.01 6.18 13.4999 5 13.4999C3.88 13.4999 2.86 13.96 2.13 14.71C2.04 14.31 2 13.8799 2 13.4299V7.42993C2 4.42993 4 2.42993 7 2.42993H17C20 2.42993 22 4.42993 22 7.42993" stroke="#292D32" stroke-width="1.5" stroke-miterlimit="10" stroke-linecap="round" stroke-linejoin="round"/>
</svg>

<svg viewBox="0 0 24 24" fill="none" xmlns="http://www.w3.org/2000/svg" height="1em" width="1em">
  <path d="M9 17.5c0 .32-.04.63-.12.93-.09.4-.25.79-.46 1.13A3.97 3.97 0 0 1 5 21.5a3.92 3.92 0 0 1-2.66-1.03c-.3-.26-.56-.57-.76-.91A3.92 3.92 0 0 1 1 17.5a3.995 3.995 0 0 1 4-4c1.18 0 2.25.51 2.97 1.33.64.71 1.03 1.65 1.03 2.67Zm-2.51-.02H3.51M5 16.02v2.99m3.5-8.51h7" stroke="#292D32" stroke-width="1.5" stroke-miterlimit="10" stroke-linecap="round" stroke-linejoin="round"/>
  <path d="M22 11.54v1.89c0 1.5-.5 2.75-1.38 3.63-.87.87-2.12 1.37-3.62 1.37v2.13c0 .8-.89 1.28-1.55.84L11 18.43H8.88c.08-.3.12-.61.12-.93 0-1.02-.39-1.96-1.03-2.67A3.944 3.944 0 0 0 5 13.5c-1.12 0-2.14.46-2.87 1.21-.09-.4-.13-.83-.13-1.28v-6c0-3 2-5 5-5h10c3 0 5 2 5 5" stroke="#292D32" stroke-width="1.5" stroke-miterlimit="10" stroke-linecap="round" stroke-linejoin="round"/>
</svg>
